public/a9ed2a8fb3315a7eb258dd82eed7ea98b524f05c.svg

<svg preserveAspectRatio="none" width="100%" height="100%" overflow="visible" style="display: block;" viewBox="0 0 23.1528 29.4142" fill="none" xmlns="http://www.w3.org/2000/svg">
<g id="2" filter="url(#filter0_diin_10_205)">
<path d="M1.23977 28.4342V23.0365L11.5494 14.5081C12.2331 13.9413 12.8179 13.4105 13.3037 12.9157C13.7985 12.412 14.1763 11.8947 14.4372 11.3639C14.7071 10.8331 14.842 10.2439 14.842 9.59614C14.842 8.88544 14.6891 8.27819 14.3832 7.7744C14.0864 7.27062 13.6725 6.88378 13.1418 6.61389C12.611 6.33501 11.9992 6.19557 11.3065 6.19557C10.6138 6.19557 10.0021 6.33501 9.47131 6.61389C8.94953 6.89278 8.5447 7.3021 8.25682 7.84188C7.96894 8.38165 7.825 9.03837 7.825 9.81205H0.7C0.7 7.86886 1.13632 6.19557 2.00895 4.79216C2.88158 3.38875 4.11406 2.30921 5.70639 1.55352C7.29872 0.797842 9.16544 0.42 11.3065 0.42C13.5196 0.42 15.4358 0.775351 17.0551 1.48605C18.6834 2.18776 19.9384 3.17734 20.82 4.4548C21.7107 5.73226 22.156 7.23013 22.156 8.94841C22.156 10.01 21.9356 11.067 21.4947 12.1196C21.0539 13.1631 20.2623 14.3191 19.1197 15.5876C17.9772 16.8561 16.3534 18.3674 14.2483 20.1217L11.6574 22.2808V22.4427H22.4528V28.4342H1.23977Z" fill="url(#paint0_linear_10_205)"/>
</g>
<defs>
<filter id="filter0_diin_10_205" x="0" y="8.9407e-08" width="23.1528" height="29.4142" filterUnits="userSpaceOnUse" color-interpolation-filters="sRGB">
<feFlood flood-opacity="0" result="BackgroundImageFix"/>
<feColorMatrix in="SourceAlpha" type="matrix" values="0 0 0 0 0 0 0 0 0 0 0 0 0 0 0 0 0 0 127 0" result="hardAlpha"/>
<feOffset dy="0.28"/>
<feGaussianBlur stdDeviation="0.35"/>
<feComposite in2="hardAlpha" operator="out"/>
<feColorMatrix type="matrix" values="0 0 0 0 0 0 0 0 0 0 0 0 0 0 0 0 0 0 0.5 0"/>
<feBlend mode="normal" in2="BackgroundImageFix" result="effect1_dropShadow_10_205"/>
<feBlend mode="normal" in="SourceGraphic" in2="BackgroundImageFix" result="shape"/>
<feColorMatrix in="SourceAlpha" type="matrix" values="0 0 0 0 0 0 0 0 0 0 0 0 0 0 0 0 0 0 127 0" result="hardAlpha"/>
<feOffset dy="-0.14"/>
<feGaussianBlur stdDeviation="0.07"/>
<feComposite in2="hardAlpha" operator="arithmetic" k2="-1" k3="1"/>
<feColorMatrix type="matrix" values="0 0 0 0 0 0 0 0 0 0 0 0 0 0 0 0 0 0 0.6 0"/>
<feBlend mode="normal" in2="shape" result="effect2_innerShadow_10_205"/>
<feColorMatrix in="SourceAlpha" type="matrix" values="0 0 0 0 0 0 0 0 0 0 0 0 0 0 0 0 0 0 127 0" result="hardAlpha"/>
<feOffset dy="0.14"/>
<feGaussianBlur stdDeviation="0.07"/>
<feComposite in2="hardAlpha" operator="arithmetic" k2="-1" k3="1"/>
<feColorMatrix type="matrix" values="0 0 0 0 0.899374 0 0 0 0 0.830286 0 0 0 0 0.678293 0 0 0 0.6 0"/>
<feBlend mode="normal" in2="effect2_innerShadow_10_205" result="effect3_innerShadow_10_205"/>
<feTurbulence type="fractalNoise" baseFrequency="2.3809523582458496 2.3809523582458496" stitchTiles="stitch" numOctaves="3" result="noise" seed="1528" />
<feComponentTransfer in="noise" result="coloredNoise1">
<feFuncR type="linear" slope="2" intercept="-0.5" />
<feFuncG type="linear" slope="2" intercept="-0.5" />
<feFuncB type="linear" slope="2" intercept="-0.5" />
<feFuncA type="discrete" tableValues="0 0 0 0 0 0 0 1 1 1 1 1 1 1 1 1 1 1 1 1 1 1 1 1 1 1 1 1 1 1 1 1 1 1 1 1 1 1 1 1 1 1 1 0 0 0 0 0 0 0 0 0 0 0 0 0 0 0 0 0 0 0 0 0 0 0 0 0 0 0 0 0 0 0 0 0 0 0 0 0 0 0 0 0 0 0 0 0 0 0 0 0 0 0 0 0 0 0 0 0 "/>
</feComponentTransfer>
<feComposite operator="in" in2="effect3_innerShadow_10_205" in="coloredNoise1" result="noise1Clipped" />
<feComponentTransfer in="noise1Clipped" result="color1">
<feFuncA type="table" tableValues="0 0.15" />
</feComponentTransfer>
<feMerge result="effect4_noise_10_205">
<feMergeNode in="effect3_innerShadow_10_205" />
<feMergeNode in="color1" />
</feMerge>
<feBlend mode="normal" in="effect4_noise_10_205" in2="effect1_dropShadow_10_205" result="effect4_noise_10_205"/>
</filter>
<linearGradient id="paint0_linear_10_205" x1="10.2989" y1="7.72587" x2="6.35208" y2="55.3924" gradientUnits="userSpaceOnUse">
<stop stop-color="#BFA46A"/>
<stop offset="1" stop-color="#594C31"/>
</linearGradient>
</defs>
</svg>

<svg xmlns="http://www.w3.org/2000/svg" fill="none" overflow="visible" preserveAspectRatio="none" style="display:block" viewBox="0 0 23.153 29.414"><g filter="url(#a)"><path fill="url(#b)" d="M1.24 28.43v-5.4l10.31-8.52a23 23 0 0 0 1.75-1.6q.75-.75 1.14-1.55.4-.8.4-1.76 0-1.07-.46-1.83a3 3 0 0 0-1.24-1.16q-.8-.41-1.83-.41-1.04 0-1.84.41a3 3 0 0 0-1.21 1.23q-.43.81-.43 1.97H.7Q.7 6.9 2 4.8q1.32-2.1 3.7-3.24Q8.1.42 11.3.42q3.33 0 5.76 1.07 2.44 1.05 3.76 2.97 1.33 1.91 1.34 4.49 0 1.6-.67 3.17-.66 1.57-2.37 3.47-1.72 1.9-4.87 4.53l-2.6 2.16v.16h10.8v6z"/></g><defs><linearGradient id="b" x1="10.299" x2="6.352" y1="7.726" y2="55.392" gradientUnits="userSpaceOnUse"><stop stop-color="#bfa46a"/><stop offset="1" stop-color="#594c31"/></linearGradient><filter id="a" width="23.153" height="29.414" x="0" y="0" color-interpolation-filters="sRGB" filterUnits="userSpaceOnUse"><feFlood flood-opacity="0" result="BackgroundImageFix"/><feColorMatrix in="SourceAlpha" result="hardAlpha" values="0 0 0 0 0 0 0 0 0 0 0 0 0 0 0 0 0 0 127 0"/><feOffset dy=".28"/><feGaussianBlur stdDeviation=".35"/><feComposite in2="hardAlpha" operator="out"/><feColorMatrix values="0 0 0 0 0 0 0 0 0 0 0 0 0 0 0 0 0 0 0.5 0"/><feBlend in2="BackgroundImageFix" result="effect1_dropShadow_10_205"/><feBlend in="SourceGraphic" in2="BackgroundImageFix" result="shape"/><feColorMatrix in="SourceAlpha" result="hardAlpha" values="0 0 0 0 0 0 0 0 0 0 0 0 0 0 0 0 0 0 127 0"/><feOffset dy="-.14"/><feGaussianBlur stdDeviation=".07"/><feComposite in2="hardAlpha" k2="-1" k3="1" operator="arithmetic"/><feColorMatrix values="0 0 0 0 0 0 0 0 0 0 0 0 0 0 0 0 0 0 0.6 0"/><feBlend in2="shape" result="effect2_innerShadow_10_205"/><feColorMatrix in="SourceAlpha" result="hardAlpha" values="0 0 0 0 0 0 0 0 0 0 0 0 0 0 0 0 0 0 127 0"/><feOffset dy=".14"/><feGaussianBlur stdDeviation=".07"/><feComposite in2="hardAlpha" k2="-1" k3="1" operator="arithmetic"/><feColorMatrix values="0 0 0 0 0.899374 0 0 0 0 0.830286 0 0 0 0 0.678293 0 0 0 0.6 0"/><feBlend in2="effect2_innerShadow_10_205" result="effect3_innerShadow_10_205"/><feTurbulence baseFrequency="2.3809523582458496 2.3809523582458496" numOctaves="3" result="noise" seed="1528" stitchTiles="stitch" type="fractalNoise"/><feComponentTransfer in="noise" result="coloredNoise1"><feFuncR intercept="-.5" slope="2" type="linear"/><feFuncG intercept="-.5" slope="2" type="linear"/><feFuncB intercept="-.5" slope="2" type="linear"/><feFuncA tableValues="0 0 0 0 0 0 0 1 1 1 1 1 1 1 1 1 1 1 1 1 1 1 1 1 1 1 1 1 1 1 1 1 1 1 1 1 1 1 1 1 1 1 1 0 0 0 0 0 0 0 0 0 0 0 0 0 0 0 0 0 0 0 0 0 0 0 0 0 0 0 0 0 0 0 0 0 0 0 0 0 0 0 0 0 0 0 0 0 0 0 0 0 0 0 0 0 0 0 0 0" type="discrete"/></feComponentTransfer><feComposite in="coloredNoise1" in2="effect3_innerShadow_10_205" operator="in" result="noise1Clipped"/><feComponentTransfer in="noise1Clipped" result="color1"><feFuncA tableValues="0 0.15" type="table"/></feComponentTransfer><feMerge result="effect4_noise_10_205"><feMergeNode in="effect3_innerShadow_10_205"/><feMergeNode in="color1"/></feMerge><feBlend in="effect4_noise_10_205" in2="effect1_dropShadow_10_205" result="effect4_noise_10_205"/></filter></defs></svg>
